packages/tokens/icons/ipx/size16Px.svg

<svg viewBox="0 0 16 16" fill="none" xmlns="http://www.w3.org/2000/svg" width="1em" height="1em"><rect x="2.5" y="1.5" width="11" height="13" rx="1.5" stroke="currentColor"/><circle cx="9.5" cy="5.5" r="1" stroke="currentColor"/><path d="M10.8536 6.14645L10.5 5.79289L9.79289 6.5L10.1464 6.85355L10.8536 6.14645ZM11.1464 7.85355C11.3417 8.04882 11.6583 8.04882 11.8536 7.85355C12.0488 7.65829 12.0488 7.34171 11.8536 7.14645L11.1464 7.85355ZM10.1464 6.85355L11.1464 7.85355L11.8536 7.14645L10.8536 6.14645L10.1464 6.85355Z" fill="currentColor"/><path d="M4.5 5.5H8.5" stroke="currentColor" stroke-linecap="round"/><path d="M4.5 8H8.5" stroke="currentColor" stroke-linecap="round"/><path d="M4.5 10.5H10.5" stroke="currentColor" stroke-linecap="round"/></svg>

<svg xmlns="http://www.w3.org/2000/svg" fill="none" viewBox="0 0 16 16" width="1em" height="1em"><rect width="11" height="13" x="2.5" y="1.5" stroke="currentColor" rx="1.5"/><circle cx="9.5" cy="5.5" r="1" stroke="currentColor"/><path fill="currentColor" d="m10.854 6.146-.354-.353-.707.707.353.354.708-.708Zm.292 1.708a.5.5 0 0 0 .708-.708l-.708.708Zm-1-1 1 1 .708-.708-1-1-.708.708Z"/><path stroke="currentColor" stroke-linecap="round" d="M4.5 5.5h4M4.5 8h4m-4 2.5h6"/></svg>
